assets/icons/user-24.svg

<svg width="24" height="24" viewBox="0 0 24 24" fill="none" xmlns="http://www.w3.org/2000/svg">
<path fill-rule="evenodd" clip-rule="evenodd" d="M12 9.99997C8.63208 9.99997 6.59814 11.2855 5.42637 12.8539C4.29603 14.3669 4.05767 16.0216 4.00475 16.6712C3.96157 17.2012 4.21576 17.6971 4.64903 17.9788C5.04851 18.2385 5.89934 18.7375 7.13204 19.1747C7.66155 21.3697 9.63958 23 12 23C14.3604 23 16.3384 21.3697 16.868 19.1747C18.1007 18.7375 18.9515 18.2385 19.351 17.9788C19.7842 17.6971 20.0384 17.2012 19.9953 16.6712C19.9423 16.0216 19.704 14.3669 18.5736 12.8539C17.4019 11.2855 15.3679 9.99997 12 9.99997ZM8.30819 17.4568C7.26395 17.138 6.49206 16.7476 6.04208 16.4866C6.13225 15.8946 6.37719 14.9259 7.03169 14.0499C7.79745 13.0249 9.21599 12 12 12C14.784 12 16.2026 13.0249 16.9683 14.0499C17.6228 14.9259 17.8678 15.8946 17.9579 16.4866C17.5079 16.7476 16.7361 17.138 15.6918 17.4568C15.3067 17.5744 15.0295 17.911 14.9884 18.311C14.8332 19.8212 13.5538 21 12 21C10.4462 21 9.16678 19.8212 9.0116 18.311C8.97049 17.911 8.69335 17.5744 8.30819 17.4568Z" fill="#F2F2F2"/>
<path fill-rule="evenodd" clip-rule="evenodd" d="M12 1C9.78771 1 7.9943 2.79086 7.9943 5C7.9943 7.20914 9.78771 9 12 9C14.2123 9 16.0057 7.20914 16.0057 5C16.0057 2.79086 14.2123 1 12 1ZM9.99715 5C9.99715 3.89543 10.8939 3 12 3C13.1061 3 14.0029 3.89543 14.0029 5C14.0029 6.10457 13.1061 7 12 7C10.8939 7 9.99715 6.10457 9.99715 5Z" fill="#F2F2F2"/>
</svg>

<svg xmlns="http://www.w3.org/2000/svg" width="24" height="24" viewBox="0 0 24 24"><path fill-rule="evenodd" d="M12 10c-3.368 0-5.402 1.286-6.574 2.854-1.13 1.513-1.368 3.168-1.421 3.817a1.42 1.42 0 00.644 1.308c.4.26 1.25.759 2.483 1.196A5.007 5.007 0 0012 23c2.36 0 4.338-1.63 4.868-3.825 1.233-.438 2.084-.937 2.483-1.196a1.42 1.42 0 00.644-1.308c-.053-.65-.291-2.304-1.421-3.817C17.402 11.286 15.368 10 12 10zm-3.692 7.457a10.906 10.906 0 01-2.266-.97c.09-.592.335-1.561.99-2.437C7.797 13.025 9.216 12 12 12s4.203 1.025 4.968 2.05c.655.876.9 1.845.99 2.437-.45.26-1.222.651-2.266.97a1 1 0 00-.704.854A3.003 3.003 0 0112 21a3.003 3.003 0 01-2.988-2.689 1 1 0 00-.704-.854zM12 1a4.003 4.003 0 00-4.006 4c0 2.21 1.794 4 4.006 4a4.003 4.003 0 004.006-4c0-2.21-1.794-4-4.006-4zM9.997 5c0-1.105.897-2 2.003-2s2.003.895 2.003 2S13.106 7 12 7a2.001 2.001 0 01-2.003-2z"/></svg>
